!!!COM: Bach, Johann Sebastian
!!!CDT: 1685/3//-1750/7/28/
!!!OTL@@DE: O wie selig seid ihr doch, ihr Frommen
!!!AGN: 4-Part Chorale
!!!SCT: BH 213
!!!SCT: BWV 405
**harm	**root	**kern	**kern	**kern	**kern
!	!	!bass	!tenor	!alto	!soprno
*	*Iorgan	*Iorgan	*Iorgan	*Iorgan	*Iorgan
*	*	*clefF4	*clefF4	*clefG2	*clefG2
*M4/4	*M4/4	*M4/4	*M4/4	*M4/4	*M4/4
*met(c)	*met(c)	*met(c)	*met(c)	*met(c)	*met(c)
*MM60	*MM60	*MM60	*MM60	*MM60	*MM60
*k[f#c#g#]	*k[f#c#g#]	*k[f#c#g#]	*k[f#c#g#]	*k[f#c#g#]	*k[f#c#g#]
*f#:	*f#:	*f#:	*f#:	*f#:	*f#:
=1-	=1-	=1-	=1-	=1-	=1-
i	4DD	4F#	4f#	4a	4cc#
ivb	4GG	8E	4f#	4b	4ff#
.	.	8D	.	.	.
v7	4AA	4C#	4g#	4b	4ee
i	4DD	4F#	4f#	[4a	8dd
.	.	.	.	.	8cc#
=2	=2	=2	=2	=2	=2
iv7	8GG	4BB	8f#	8a]	4dd
iiob	8EE	.	8d	8g#	.
IIIb	4FF	8C#	4e	[4a	4cc#
.	.	8D	.	.	.
-VII	4CC	4E	4e	8a]	4b
.	.	.	.	8g#	.
III	4FF	4A	4e	4a	8cc#
.	.	.	.	.	8dd
=3	=3	=3	=3	=3	=3
V7b/-VII	4GG	4D	8f#	4a	2b
.	.	.	8d	.	.
-VII	4CC	4E	8B	4g#	.
.	.	.	8e	.	.
III;	2FF;	2AA;	2c#;	2e;	2a;
=4	=4	=4	=4	=4	=4
III	4FF	4A	8e	4a	8cc#
.	.	.	8f#	.	8dd
-VII	4CC	8G#	8g#	8b	4ee
.	.	8A#	8f#	8cc#	.
IV	4GG	8B	4f#	4b	4.dd#
.	.	8A	.	.	.
viiob	4CC#	4G#	4g#	4b	.
.	.	.	.	.	8ee#
=5	=5	=5	=5	=5	=5
Ib	8DD	8A#	8f#	8cc#	4ff#
viio/V	8GG#	8B#	8d#	8dd#	.
v	4AA	4c#	4g#	4cc#	8ee
.	.	.	.	.	8ff#
vb	4AA	4E	4g#	4cc#	4gg#
i	4DD	4F#	4a	4cc#	8ff#
.	.	.	.	.	8ee
!!linebreak: 2
=6	=6	=6	=6	=6	=6
V7/V	2EE	4G#	8d#	4cc#	2dd#
.	.	.	4g#	.	.
.	.	4GG#	.	4b#	.
.	.	.	8f#	.	.
V;	2AA;	2C#;	2e#;	2g#;	2cc#;
=7	=7	=7	=7	=7	=7
r	4r	4r	4r	4r	4r
V	4AA	4C#	4G#	4e#	4cc#
IVb	4GG	4D#	4F#	4f#	4b
Vb	4AA	4E#	4c#	4g#	4g#
=8	=8	=8	=8	=8	=8
i	2DD	4F#	2c#	4g#	2a
.	.	4FF#	.	4f#	.
V;	2AA;	2C#;	2c#;	2e#;	2g#;
=9	=9	=9	=9	=9	=9
ib	4DD	4A	4c#	4f#	4f#
Vb	4AA	4E#	4c#	4c#	4g#
i	4DD	4F#	8c#	4f#	4a
.	.	.	8d	.	.
-VIIb	4CC	4G#	8c#	4e	4b
.	.	.	8B	.	.
=10	=10	=10	=10	=10	=10
III	4FF	4A	8A	4e	4cc#
.	.	.	8c#	.	.
viiob/-VII	4BB	8G#	8B	4a	4dd#
.	.	8F#	8A	.	.
viiob	4CC#	4G#	4B	4g#	4ee#
ib	4DD	8A	8c#	8f#	4ff#
.	.	8B	8d	8g#	.
=11	=11	=11	=11	=11	=11
ic	4DD	4c#	4c#	8a	4ff#
.	.	.	.	16g#	.
.	.	.	.	16f#	.
V	4AA	4C#	4c#	4g#	4ee#
I;	2DD;	2F#;	2c#;	2a#;	2ff#;
==	==	==	==	==	==
*-	*-	*-	*-	*-	*-
!!chor2scor: -l 2 -s 0.6 -o %b.pmx
!!!YEC: Copyright 2003 by Craig Stuart Sapp
!!!license: GNU General Public License (http://www.gnu.org/copyleft/gpl.html)
!!!SMA: 371 Bach Chorales, edited by Ludwig Erk, C.F. Peters
!!!PDT: 1850, 1865
!!!ONB: Harmony and Root analysis done manually by Craig Sapp
